resources/haticons/SVG/trakt.svg

<!-- Generated by IcoMoon.io -->
<svg version="1.1" xmlns="http://www.w3.org/2000/svg" width="24" height="24" viewBox="0 0 24 24">
<title>trakt</title>
<path fill="#ed1c24" d="M12 24c-6.615 0-12-5.385-12-12s5.385-12 12-12 12 5.385 12 12-5.385 12-12 12zM12 1.211c-5.95 0-10.789 4.839-10.789 10.789s4.839 10.79 10.789 10.79 10.79-4.84 10.79-10.79-4.84-10.789-10.79-10.789zM4.89 18.531c1.756 1.92 4.294 3.113 7.11 3.113 1.439 0 2.801-0.313 4.027-0.876l-6.697-6.68zM19.178 18.464c1.541-1.71 2.484-3.99 2.484-6.466 0-3.885-2.287-7.215-5.568-8.76l-6.089 6.076 9.164 9.15zM9.301 10.035l-5.074 5.055-0.679-0.68 11.567-11.561c-0.978-0.328-2.020-0.509-3.115-0.509-5.337-0.003-9.663 4.323-9.663 9.66 0 2.172 0.713 4.178 1.939 5.801l5.056-5.055 0.359 0.329 7.245 7.245c0.15-0.082 0.285-0.164 0.42-0.266l-8.026-8.004-4.854 4.855-0.679-0.679 5.535-5.535 0.359 0.331 8.46 8.437c0.135-0.1 0.255-0.215 0.375-0.316l-9.136-9.116-0.083 0.015zM12.348 11.063l-0.678-0.676 4.788-4.79 0.679 0.689-4.789 4.785zM16.89 4.485l-5.52 5.52-0.68-0.679 5.521-5.52 0.679 0.684z"></path>
</svg>

<svg xmlns="http://www.w3.org/2000/svg" width="24" height="24"><path fill="#ed1c24" d="M12 24C5.385 24 0 18.615 0 12S5.385 0 12 0s12 5.385 12 12-5.385 12-12 12zm0-22.789C6.05 1.211 1.211 6.05 1.211 12S6.05 22.79 12 22.79 22.79 17.95 22.79 12 17.95 1.211 12 1.211zm-7.11 17.32A9.601 9.601 0 0 0 12 21.644a9.618 9.618 0 0 0 4.027-.876l-6.697-6.68zm14.288-.067a9.654 9.654 0 0 0 2.484-6.466c0-3.885-2.287-7.215-5.568-8.76l-6.089 6.076 9.164 9.15zm-9.877-8.429L4.227 15.09l-.679-.68L15.115 2.849A9.756 9.756 0 0 0 12 2.34C6.663 2.337 2.337 6.663 2.337 12c0 2.172.713 4.178 1.939 5.801l5.056-5.055.359.329 7.245 7.245a3.31 3.31 0 0 0 .42-.266L9.33 12.05l-4.854 4.855-.679-.679 5.535-5.535.359.331 8.46 8.437c.135-.1.255-.215.375-.316L9.39 10.027l-.083.015zm3.047 1.028l-.678-.676 4.788-4.79.679.689-4.789 4.785zm4.542-6.578l-5.52 5.52-.68-.679 5.521-5.52.679.684z"/></svg>
